X:1
T:A kapuba a szekér
C:Hungarian folk song
Z:Public Domain
L:1/8
M:4/4
K:C
V:1 treble nm="Voice"
%%MIDI program 52
V:1
 dddA AA A2 | dddA AA A2 | GGFF cA A2 | GG^FG DD D2 |] %4
w: A ka- pu- ba a sze- kér,|Itt a le- gény, le- ányt kér,|De a le- ány azt mond- ja,|Nem me- gyek férj- hez so- ha.-|

